!!!OTL: MORGEN WILL MEIN SCHATZ ABREISEN
!!!ARE: Europa, Mitteleuropa, Deutschland, Westfalen, Paderborn
!!!SCT: E0782B
!!!YEM: Copyright 1995, estate of Helmut Schaffrath.
**kern
*ICvox
*Ivox
*M2/4
*k[b-]
*F:
{8.cc
16b-
=1
8a
8a
16cc
16b-
16a
16b-
=2
8cc
16ff
16dd}
{8.cc
16b-
=3
8a
8a
16cc
16b-
16a
16b-
=4
8cc
8r}
{8.a
16cc
=5
16cc
16b-
16b-
16a
8.g
16b-
=6
16a
16cc
16ff
16cc}
{8.a
16cc
=7
16cc
16b-
16b-
16a
16g
16a
16b-
16g
=8
4f}
==
!!!AGN: Abschieds - Lied, Liebe
!!!ONB: ESAC (Essen Associative Code) Database: ERK2
!!!AMT: simple duple
!!!AIN: vox
!!!EED: Helmut Schaffrath
!!!EEV: 1.0
*-
